!!! OTL: Literature126
!!! Chapter: 5
!!! Section: IV
!!! Page: 374
!!! Mode: 
!!! Encoder: DJB
**kern
*staff1
*I"Piano
=1-
*clefF4
*k[f#c#g#]
*A:
*M3/8
8r
8E\L
8A\J
=2
4e\
8c#\
=3
16B\LL
16c#\J
8B\
8A\J
=4
16G#\LL
16A\J
8G#\
8F#\J
=5
8E#\L
16F#\L
16G#\J
8F#\J
=6
8D#\L
16E\L
16F#\J
8E\J
=7
8r
8C#/L
8D/J
=8
8D#\L
8F#\
8E\J
=9
8r
8E\L
8A\J
=10
4e\
8c#\
=11
16B\LL
16c#\J
8B\
8A\J
=12
16G#\LL
16A\J
8G#\
8F#\J
=13
!!linebreak:original
8E#\L
16F#\L
16G#\J
8F#\J
=14
8D#\L
16E\L
16F#\J
8E\J
=15
8A\
4r
==
*-
